X: 405
T: Danxiang zhu niangjia buxiang hui
L: 1/16
M: 2/4
K: F
G2 G2 G f d f [I:setbarnb 1]| 
F2 D =B,C4 | 
C2 c2 =B c f d | 
G8 | 
G2 G2 G f d f | 
F2 D =B,C4 | 
C2 c2 =B c f D | 
C8 |]

@@@ Tune index: 9279
